packages/tokens/icons/map2/size24Px.svg

<svg viewBox="0 0 24 24" fill="none" xmlns="http://www.w3.org/2000/svg" width="1em" height="1em"><path d="M20.5 5.5V5.5C21.0523 5.5 21.5 5.94772 21.5 6.5V18.5C21.5 19.6046 20.6046 20.5 19.5 20.5H4.5C3.39543 20.5 2.5 19.6046 2.5 18.5L2.5 7.5C2.5 6.39543 3.39543 5.5 4.5 5.5H8.5" stroke="currentColor" stroke-linecap="round"/><path d="M2.5 8L5.29289 10.7929C5.68342 11.1834 5.68342 11.8166 5.29289 12.2071L2.5 15M5.5 5.5L14.2929 14.2929C14.6834 14.6834 15.3166 14.6834 15.7071 14.2929L21.5 8.5M21.5 12.5L17.7071 16.2929C17.3166 16.6834 17.3166 17.3166 17.7071 17.7071L20 20M2.5 18.5L7.29289 13.7071C7.68342 13.3166 8.31658 13.3166 8.70711 13.7071L15.5 20.5" stroke="currentColor" stroke-linecap="round" stroke-linejoin="round"/><path d="M17.5 5.75C17.5 6.02552 17.4156 6.38882 17.2467 6.82433C17.0803 7.25356 16.8444 7.72154 16.5709 8.19698C16.0241 9.14784 15.3479 10.0929 14.8402 10.7623C14.6641 10.9945 14.3359 10.9945 14.1598 10.7623C13.6521 10.0929 12.9759 9.14784 12.4291 8.19698C12.1556 7.72154 11.9197 7.25356 11.7533 6.82433C11.5844 6.38882 11.5 6.02552 11.5 5.75C11.5 3.92202 12.8751 2.5 14.5 2.5C16.1249 2.5 17.5 3.92202 17.5 5.75Z" stroke="currentColor"/><circle cx="14.5" cy="5.5" r="1" stroke="currentColor"/></svg>

<svg xmlns="http://www.w3.org/2000/svg" fill="none" viewBox="0 0 24 24" width="1em" height="1em"><path stroke="currentColor" stroke-linecap="round" d="M20.5 5.5v0a1 1 0 0 1 1 1v12a2 2 0 0 1-2 2h-15a2 2 0 0 1-2-2v-11a2 2 0 0 1 2-2h4"/><path stroke="currentColor" stroke-linecap="round" stroke-linejoin="round" d="m2.5 8 2.793 2.793a1 1 0 0 1 0 1.414L2.5 15m3-9.5 8.793 8.793a1 1 0 0 0 1.414 0L21.5 8.5m0 4-3.793 3.793a1 1 0 0 0 0 1.414L20 20M2.5 18.5l4.793-4.793a1 1 0 0 1 1.414 0L15.5 20.5"/><path stroke="currentColor" d="M17.5 5.75c0 .276-.084.639-.253 1.074-.167.43-.403.898-.676 1.373-.547.95-1.223 1.896-1.73 2.565a.42.42 0 0 1-.681 0c-.508-.67-1.184-1.614-1.73-2.565-.274-.475-.51-.943-.677-1.373-.169-.435-.253-.798-.253-1.074 0-1.828 1.375-3.25 3-3.25s3 1.422 3 3.25Z"/><circle cx="14.5" cy="5.5" r="1" stroke="currentColor"/></svg>
